X: 40514
T: Tommy Gunn's
R: reel
M: 4/4
K: Dmajor
D2D2 FEFA|D2D2 EDEF|D2D2 FEFA|(Bd)AF E2E2:|
|:d2(dc) dAFA|(Adcd) (egfe)|d3/2d3/2c dAFA|e2d2c2:|
|:afaf gfge|fged cBA|afaf gfge|faec d2d2:|
|:(Adfd) (ffge)|faed dcBA|Adfd efge|(fae)c d2d2 +fermata+:|

